**kern	**kern
*staff1	*staff2
=1-	=1-
*clefG2	*clefF4
*k[f#]	*k[f#]
*met(c|)	*met(c|)
*M2/2	*M2/2
4g	4GG 4G
4g	4GG 4G
4f#	4FF# 4F#
8f#L	8FF#L 8F#
8gJ	8GGJ 8G
=2	=2
4e	4EE 4E
8eL	8EEL 8E
8gJ	8GGJ 8G
2d	2DD 2D
=3	=3
*^	*
4cc	4g	4E
4cc	4a	4F#
(8ccL	4d	4G
8b)	.	.
8a'	4r	4r
8g'J	.	.
=4	=4	=4
*	*	*^
4g	4d	(4B	2D
*v	*v	*	*
(bq	.	.
*^	*	*
4a)	4f#	4c)	.
4g	2r	4B	4G
4r	.	4r	4GG
*	*	*v	*v
=5:|!|:	=5:|!|:	=5:|!|:
4d [4e	4B	4GG# 4G#
8.eL]	4r	4EE 4E
16eJk	.	.
[4e	4c	4AA 4A
(8.eL]	4r	4EE 4E
32aLL	.	.
32ccJJJ)	.	.
*v	*v	*
=6	=6
*^	*
4ee	4b	4G#
4ee	4g#	4E
4cc	4a	4A
4r	4r	4AA
=7	=7	=7
4c [4d	4A	4FF# 4F#
8.dL]	4r	4DD 4D
16dJk	.	.
[4d	4B	4GG 4G
(8.dL]	4r	4DD 4D
32gLL	.	.
32bJJJ)	.	.
=8	=8	=8
4dd	4a	4F#
4dd	4f#	4D
4b	4g	4G
4r	4r	4GG
*v	*v	*
=9	=9
4g 4gg	4GG 4G
4g 4gg	4GG 4G
4f# 4ff#	4FF# 4F#
8f#L 8ff#	8FF#L 8F#
8gJ 8gg	8GGJ 8G
=10	=10
4e 4ee	4EE 4E
8eL 8ee	8EEL 8E
8gJ 8gg	8GGJ 8G
2d 2dd	2DD 2D
=11	=11
*^	*
4ccc	4gg	4A
4ccc	4aa	4F#
(8cccL	4dd	4G
8bb)	.	.
8aa'	4r	4r
8gg'J	.	.
=12	=12	=12
*	*	*^
4gg	4dd	(4B	2D
*v	*v	*	*
(bbq	.	.
*^	*	*
4aa)	4ff#	4c)	.
4gg	2r	4B;	4G;
4r	.	4r	4r
*clefG2	*clefG2	*clefF4	*clefF4
*v	*v	*	*
*	*v	*v
=13:|!|:	=13:|!|:
*	*^
16gLL	4r	2G
16a	.	.
16g	.	.
16f#JJ	.	.
16gLL	4B [4d	.
16a	.	.
16b	.	.
16gJJ	.	.
16f#LL	4d]	2F#
16g	.	.
16f#	.	.
16eJJ	.	.
16f#LL	4A [4d	.
16g	.	.
16a	.	.
16f#JJ	.	.
*	*v	*v
=14	=14
*	*^
16eLL	4d]	2E
16f#	.	.
16e	.	.
16dJJ	.	.
16eLL	4G 4c#	.
16f#	.	.
16g	.	.
16eJJ	.	.
16dLL	4r	2D
16e	.	.
16d	.	.
16c#JJ	.	.
16dLL	4F# 4A	.
16e	.	.
16f#	.	.
16dJJ	.	.
=15	=15	=15
16cnLL	1G	4E
16cc	.	.
16d	.	.
16ddJJ	.	.
16eLL	.	4C
16ee	.	.
16f#	.	.
16ff#JJ	.	.
16gLL	.	4BB
16gg	.	.
16a	.	.
16aaJJ	.	.
16bLL	.	4GG
16bb	.	.
16cc	.	.
16cccJJ	.	.
=16	=16	=16
4dd 4ddd	4G 4B	4D
4dd 4ddd	4F# 4A	4D
4g 4gg	2r	4G
4r	.	4GG
*	*v	*v
=17:|!	=17:|!|:
*	*^
(16fLL	4r	4r
16e	.	.
16d#	.	.
16eJJ	.	.
16aLL	2E	4D
16g#	.	.
16f#	.	.
16g#JJ	.	.
16bLL	.	4C
16a	.	.
16g#	.	.
16aJJ)	.	.
(16ddLL	[4E	4AA
16cc	.	.
16b	.	.
16ccJJ	.	.
=18	=18	=18
16ffLL	4E]	4GG#
16ee	.	.
16dd#	.	.
16eeJJ	.	.
16aaLL	2E	4D
16gg#	.	.
16ff#	.	.
16gg#JJ)	.	.
(16bbLL	.	(4C
16aa	.	.
16gg#	.	.
16aaJJ	.	.
8eee)	4r	8AA)
8r	.	8r
*	*	*
*	*v	*v
=19	=19
*	*^
(16eLL	4r	4r
16d	.	.
16c#	.	.
16dJJ	.	.
16gLL	2D	4C
16f#	.	.
16e	.	.
16f#JJ	.	.
16aLL	.	4BB
16g	.	.
16f#	.	.
16gJJ)	.	.
(16ccLL	[4D	4GG
16b	.	.
16a#	.	.
16bJJ	.	.
=20	=20	=20
16eeLL	4D]	4FF#
16dd	.	.
16cc#	.	.
16ddJJ	.	.
16ggLL	2D	4C
16ff#	.	.
16ee	.	.
16ff#JJ)	.	.
(16aaLL	.	(4BB
16gg	.	.
16ff#	.	.
16ggJJ	.	.
8ddd)	4r	8GG)
8r	.	8r
=21	=21	=21
16aLL	4r	2G
16g	.	.
16f#	.	.
16gJJ	.	.
16bLL	4B [4d	.
16g	.	.
16gg	.	.
16gJJ	.	.
16gLL	4d]	2F#
16f#	.	.
16e	.	.
16f#JJ	.	.
16aLL	4A [4d	.
16f#	.	.
16ff#	.	.
16f#JJ	.	.
*	*	*
*	*v	*v
=22	=22
*	*^
16f#LL	4d]	2E
16e	.	.
16d#	.	.
16eJJ	.	.
16gLL	4G 4c#	.
16e	.	.
16ee	.	.
16eJJ	.	.
16eLL	4r	2D
16d	.	.
16c#	.	.
16dJJ	.	.
16f#LL	4F# 4A	.
16d	.	.
16dd	.	.
16dJJ	.	.
=23	=23	=23
16cnLL	1G	4E
16cc	.	.
16d	.	.
16ddJJ	.	.
16eLL	.	4C
16ee	.	.
16f#	.	.
16ff#JJ	.	.
16gLL	.	4BB
16gg	.	.
16a	.	.
16aaJJ	.	.
16bLL	.	4GG
16bb	.	.
16cc	.	.
16cccJJ	.	.
=24	=24	=24
8ddL 8ddd	4G 4B	4D
8dd 8ddd	.	.
8dd 8ddd	4F# 4A	4D
8ddJ 8ddd	.	.
4g 4gg	2r	4G
4r	.	4GG
*	*v	*v
=25:|!|:	=25:|!
4g	16GGLL
.	16G
.	16F#
.	16GJJ
4g	16ALL
.	16G
.	16F#
.	16GJJ
32gq	.
32f#q	.
32eq	.
4f#	16FF#LL
.	16F#
.	16E
.	16F#JJ
4f#	16GLL
.	16F#
.	16E
.	16F#JJ
=26	=26
32f#q	.
32eq	.
32d#q	.
4e	16EELL
.	16E
.	16D#
.	16EJJ
4e	16F#LL
.	16E
.	16D#
.	16EJJ
32eq	.
32dq	.
32c#q	.
2d	16DDLL
.	16D
.	16C#
.	16DJJ
.	16ELL
.	16D
.	16C#
.	16DJJ
=27	=27
4cn	16CCnLL
.	16C
.	16DD
.	16DJJ
(4.ee 4.ccc	16EELL
.	16E
.	16FF#
.	16F#JJ
.	16GGLL
.	16G
8ddL 8bb	16AA
.	16AJJ
8cc 8aa	16BBLL
.	16B
8bJ) 8gg	16C
.	16cJJ
=28	=28
(4b 4gg	4D 4d
8ddL 8bb	4D 4d
8ccJ) 8aa	.
4b 4gg	4GG 4G
4r	4r
=29:|!|:	=29:|!|:
4e	16EELL
.	16E
.	16D#
.	16EJJ
4d 4e	16FF#LL
.	16E
.	16GG#
.	16EJJ
4c 4e	16AALL
.	16E
.	16BB
.	16EJJ
4r	16CLL
.	16E
.	16AA
.	16EJJ
=30	=30
8r	16EELL
.	16E
(8ee	16D#
.	16EJJ
8dd#L	16F#LL
.	16E
8ddJ	16G#
.	16EJJ
8ccL	16ALL
.	16E
8g#J	16B
.	16EJJ
4a)	16cLL
.	16E
.	16A
.	16EJJ
=31	=31
4d	16DDLL
.	16D
.	16C#
.	16DJJ
4c 4d	16EELL
.	16D
.	16FF#
.	16DJJ
4B 4d	16GGLL
.	16D
.	16AA
.	16DJJ
4r	16BBLL
.	16D
.	16GG
.	16DJJ
=32	=32
8r	16DDLL
.	16D
(8dd	16C#
.	16DJJ
8cc#L	16ELL
.	16D
8ccJ	16F#
.	16DJJ
8bL	16GLL
.	16D
8f#J	16A
.	16DJJ
4g)	16BLL
.	16D
.	16G
.	16DJJ
=33	=33
4g 4b 4dd 4gg	16GGLL
.	16G
.	16F#
.	16GJJ
4g 4gg	16ALL
.	16G
.	16F#
.	16GJJ
32ggq	.
32ff#q	.
32eeq	.
4ff#	16FF#LL
.	16F#
.	16E
.	16F#JJ
4f# 4ff#	16GLL
.	16F#
.	16E
.	16F#JJ
=34	=34
32ff#q	.
32eeq	.
32dd#q	.
4ee	16EELL
.	16E
.	16D#
.	16EJJ
4e 4ee	16F#LL
.	16E
.	16D#
.	16EJJ
2d 2dd	16DDLL
.	16D
.	16C#
.	16DJJ
.	16ELL
.	16D
.	16C#
.	16DJJ
=35	=35
4cn 4ccn	16CCnLL
.	16C
.	16DD
.	16DJJ
(4.ee 4.ccc	16EELL
.	16E
.	16FF#
.	16F#JJ
.	16GGLL
.	16G
8ddL 8bb	16AA
.	16AJJ
8cc 8aa	16BBLL
.	16B
8bJ) 8gg	16C
.	16cJJ
=36	=36
(4b 4gg	8DL 8d
.	8D 8d
8ddL 8bb	8D 8d
8ccJ) 8aa	8DJ 8d
4b 4gg	4GG 4G
4r	4r
*clefG2	*clefG2
=37:|!|:	=37:|!|:
(12gL	4r
12b	.
12ddJ)	.
12ddL	4g 4b
12dd	.
12ddJ	.
12ddL	2f# 2a
12dd	.
12ddJ	.
(12ddL	.
12ee	.
12ff#J)	.
=38	=38
*	*^
(12ggL	4b	2e
12ff#	.	.
12ggJ)	.	.
(12bbL	4cc#	.
12aa	.	.
12ggJ)	.	.
(12ggL	[2dd	4d
12ee#	.	.
12ff#J)	.	.
(12ff#L	.	4f#
12aa	.	.
12dddJ)	.	.
*	*v	*v
=39	=39
*	*^
(12dddL	4dd]	4g#
12bb	.	.
12eeJ)	.	.
(12eeL	2ccn	4a
12aa	.	.
12cccJ)	.	.
(12cccL	.	4f#
12aa	.	.
12ddJ)	.	.
(12ddL	4b	4g
12gg	.	.
12bbJ)	.	.
*	*clefF4	*clefF4
*	*v	*v
=40	=40
(12eeL	4C 4A
12cc	.
12aJ)	.
(12ccL	4D 4c
12a	.
12f#J)	.
4g	4G 4B
4r	4GG
=41:|!|:	=41:|!|:
*	*^
(12fL	4r	4r
12d#	.	.
12eJ	.	.
12aL)	2e	4d
(12f#	.	.
12g#J	.	.
12bL)	.	4c
(12g#	.	.
12aJ	.	.
12ddL)	[4e	4A
(12b	.	.
12ccJ	.	.
*	*v	*v
=42	=42
*	*^
12ffL)	4e]	4G#
(12dd#	.	.
12eeJ	.	.
12aaL)	2e	4d
(12ff#	.	.
12gg#J	.	.
12bbL)	.	(4c
(12gg#	.	.
12aaJ	.	.
8eee)	4r	8A)
8r	.	8r
=43	=43	=43
(12e-L	4r	4r
12c#	.	.
12dJ	.	.
12gL)	2d	4c
(12e	.	.
12f#J	.	.
12aL)	.	4B
(12f#	.	.
12gJ	.	.
12ccL)	[4d	4G
(12a#	.	.
12bJ	.	.
=44	=44	=44
12eeL)	4d]	4F#
(12cc#	.	.
12ddJ	.	.
12ggL)	2d	4c
(12ee	.	.
12ff#J	.	.
12aaL)	.	(4B
(12ff#	.	.
12ggJ	.	.
8ddd)	4r	8G)
8r	.	8r
*	*clefG2	*clefG2
*	*v	*v
=45	=45
(12gL	4r
12b	.
12ddJ)	.
12ddL	4g 4b
12dd	.
12ddJ	.
12ddL	2f# 2a
12dd	.
12ddJ	.
(12ddL	.
12ee	.
12ff#J)	.
=46	=46
*	*^
(12ggL	4b	2e
12ff#	.	.
12ggJ)	.	.
(12bbL	4cc#	.
12aa	.	.
12ggJ)	.	.
(12ggL	[2dd	4d
12ee#	.	.
12ff#J)	.	.
(12ff#L	.	4f#
12aa	.	.
12dddJ)	.	.
=47	=47	=47
(12dddL	4dd]	4g#
12bb	.	.
12eeJ)	.	.
(12eeL	2ccn	4a
12aa	.	.
12cccJ)	.	.
(12cccL	.	4f#
12aa	.	.
12ddJ)	.	.
(12ddL	4b	4g
12gg	.	.
12bbJ)	.	.
*	*v	*v
*	*clefF4
=48	=48
(12eeL	4C 4A
12cc	.
12aJ)	.
(12ccL	4D 4c
12a	.
12f#J)	.
4g	4G 4B
4r	4GG
*clefG2	*clefF4
=49:|!|:	=49:|!|:
1r	4GG 4G
.	4GG 4G
.	4FF# 4F#
.	8FF#L 8F#
.	8GGJ 8G
=50	=50
2r	4EE 4E
.	8EEL 8E
.	8GGJ 8G
4cc 4ff# 4aa [4ccc	2DD 2D
16cccLL]	.
16bb	.
16ccc	.
16bbJJ	.
=51	=51
*	*^
16cccLL	4EE 4E	2.r
16bb	.	.
16aa	.	.
16ggJJ	.	.
16ff#LL	4FF# 4F#	.
16ee	.	.
16dd	.	.
16ccJJ	.	.
16bLL	4GG 4G	.
16gg	.	.
16dd	.	.
16bJJ	.	.
16aLL	4A	4C
16ee	.	.
16cc	.	.
16aJJ	.	.
=52	=52	=52
16gLL	(4B	2D
16dd	.	.
16b	.	.
16gJJ	.	.
16f#LL	4c)	.
16cc	.	.
16a	.	.
16f#JJ	.	.
4g	4B	4G
4r	4r	4r
*	*v	*v
=53	=53
1r	4GG 4G
.	4GG 4G
.	4FF# 4F#
.	8FF#L 8F#
.	8GGJ 8G
=54	=54
2r	4EE 4E
.	8EEL 8E
.	8GGJ 8G
4cc 4ff 4gg [4bb	2DD 2D
16bbLL]	.
16ccc	.
16aa	.
16bbJJ	.
=55	=55
*	*^
16cccLL	4EE 4E	2.r
16bb	.	.
16aa	.	.
16ggJJ	.	.
16ff#LL	4FF# 4F#	.
16ee	.	.
16dd	.	.
16ccJJ	.	.
16bLL	4GG 4G	.
16gg	.	.
16dd	.	.
16bJJ	.	.
16aLL	4A	4C
16ee	.	.
16cc	.	.
16aJJ	.	.
=56	=56	=56
16gLL	(4B	2D
16dd	.	.
16b	.	.
16gJJ	.	.
16f#LL	4c)	.
16cc	.	.
16a	.	.
16f#JJ	.	.
4g	4B	4G
4r	4r	4r
*	*v	*v
=57	=57
*^	*
2g#	16eLL	2EE 2E
.	16d#	.
.	16e	.
.	16BJJ	.
.	16eLL	.
.	16d#	.
.	16e	.
.	16BJJ	.
2a	16f#LL	2DD# 2D#
.	16e	.
.	16f#	.
.	16BJJ	.
.	16f#LL	.
.	16e	.
.	16f#	.
.	16BJJ	.
*v	*v	*
=58	=58
*^	*
2b	16g#LL	2DDn 2Dn
.	16f#	.
.	16g#	.
.	16eJJ	.
.	16g#LL	.
.	16f#	.
.	16g#	.
.	16eJJ	.
(4cc#	2a	16C#LL
.	.	16BB
.	.	16C#
.	.	16AAJJ
4ee)	.	16C#LL
.	.	16BB
.	.	16C#
.	.	16AAJJ
=59	=59	=59
2f#	16dLL	2DD 2D
.	16c#	.
.	16d	.
.	16AJJ	.
.	16dLL	.
.	16c#	.
.	16d	.
.	16AJJ	.
2g	16eLL	2CC# 2C#
.	16d	.
.	16e	.
.	16AJJ	.
.	16eLL	.
.	16d	.
.	16e	.
.	16AJJ	.
=60	=60	=60
2a	16f#LL	2CCn 2Cn
.	16e	.
.	16f#	.
.	16dJJ	.
.	16f#LL	.
.	16e	.
.	16f#	.
.	16dJJ	.
(4b	2g	16BBLL
.	.	16AA
.	.	16BB
.	.	16GGJJ
4dd)	.	16BBLL
.	.	16AA
.	.	16BB
.	.	16GGJJ
*v	*v	*
=61	=61
1r	4GG 4G
.	4GG 4G
.	4FF# 4F#
.	8FF#L 8F#
.	8GGJ 8G
=62	=62
2r	4EE 4E
.	8EEL 8E
.	8GGJ 8G
4b 4ff# [4bb	2DD# 2D#
16bbLL]	.
16ccc	.
16aa	.
16bbJJ	.
=63	=63
*	*^
16cccLL	4EE 4E	2.r
16bb	.	.
16aa	.	.
16ggJJ	.	.
16ff#LL	4FF# 4F#	.
16ee	.	.
16dd	.	.
16ccJJ	.	.
16bLL	4GG 4G	.
16gg	.	.
16dd	.	.
16bJJ	.	.
16aLL	4A	4C
16ee	.	.
16cc	.	.
16aJJ	.	.
=64	=64	=64
16gLL	(4B	2D
16dd	.	.
16b	.	.
16gJJ	.	.
16f#LL	4c)	.
16cc	.	.
16a	.	.
16f#JJ	.	.
4g	4B	4G
4r	4r	4GG
*	*v	*v
=65	=65
*^	*
2g#	16eLL	2EE 2E
.	16d#	.
.	16e	.
.	16BJJ	.
.	16eLL	.
.	16d#	.
.	16e	.
.	16BJJ	.
2a	16f#LL	2DD# 2D#
.	16e	.
.	16f#	.
.	16BJJ	.
.	16f#LL	.
.	16e	.
.	16f#	.
.	16BJJ	.
=66	=66	=66
2b	16g#LL	2DDn 2Dn
.	16f#	.
.	16g#	.
.	16eJJ	.
.	16g#LL	.
.	16f#	.
.	16g#	.
.	16eJJ	.
4cc#	16aLL	16C#LL
.	16g#	16BB
.	16a	16C#
.	16eJJ	16AAJJ
16eeLL	4a	16C#LL
16dd	.	16BB
16ee	.	16C#
16cc#JJ	.	16AAJJ
*v	*v	*
=67	=67
*^	*
2f#	16dLL	2DD 2D
.	16c#	.
.	16d	.
.	16AJJ	.
.	16dLL	.
.	16c#	.
.	16d	.
.	16AJJ	.
2g	16eLL	2CC# 2C#
.	16d	.
.	16e	.
.	16AJJ	.
.	16eLL	.
.	16d	.
.	16e	.
.	16AJJ	.
=68	=68	=68
2a	16f#LL	2CCn 2Cn
.	16e	.
.	16f#	.
.	16dJJ	.
.	16f#LL	.
.	16e	.
.	16f#	.
.	16dJJ	.
4b	16gLL	16BBLL
.	16f#	16AA
.	16g	16BB
.	16dJJ	16GGJJ
16ddLL	4g	16BBLL
16cc	.	16AA
16dd	.	16BB
16bJJ	.	16GGJJ
*v	*v	*
=69	=69
4gg	4GG 4G
4r	4GG 4G
2r	4FF# 4F#
.	8FF#L 8F#
.	8GGJ 8G
=70	=70
2r	4EE 4E
.	8EEL 8E
.	8GGJ 8G
4a 4ee 4gg [4aa	2CC# 2C#
16aaLL]	.
16bb	.
16aa	.
16bbJJ	.
=71	=71
*	*^
16cccLL	4DD 4D	2.r
16bb	.	.
16aa	.	.
16ggJJ	.	.
16ff#LL	4FF# 4F#	.
16ee	.	.
16dd	.	.
16ccJJ	.	.
16bLL	4GG 4G	.
16gg	.	.
16dd	.	.
16bJJ	.	.
16aLL	4A	4C
16ee	.	.
16cc	.	.
16aJJ	.	.
=72	=72	=72
16gLL	(4B	2D
16dd	.	.
16b	.	.
16gJJ	.	.
16f#LL	4c)	.
16cc	.	.
16a	.	.
16f#JJ	.	.
4g	4B	4G
4r	4r	4GG
*clefG2	*clefF4	*clefF4
=73:|!	=73:|!|:	=73:|!|:
*k[b-e-]	*k[b-e-]	*k[b-e-]
(8.gL	4r	4r
16aJk)	.	.
(8.b-L	4B-	4G
16ccJk)	.	.
8dd'L	4A	4F#
8dd'	.	.
8dd'	[4d	4F
8dd'J	.	.
=74	=74	=74
(8.ggL	4d]	4E
16aaJk)	.	.
(8.bb-L	2G	4E-
16cccJk)	.	.
8ddd'L	.	2D
8ddd'	.	.
8ddd'	4F#	.
8ddd'J	.	.
=75	=75	=75
(8eee-L	4r	4r
16aaJk)	.	.
16r	.	.
(8cccL	4c	4A
16ff#Jk)	.	.
16r	.	.
(8ggL	4d	4B-
16ddJk)	.	.
16r	.	.
(8ee-L	4c	4C
16aJk)	.	.
16r	.	.
=76	=76	=76
(8ddL	(4B-	2D
16gJk)	.	.
16r	.	.
(8ccL	4A)	.
16f#Jk)	.	.
16r	.	.
4g	2r	4G
4r	.	4GG
*	*v	*v
=77:|!|:	=77:|!|:
*^	*
4r	4r	(8.GGGL
.	.	16AAAJk)
2dd	2b-	(8.BBB-L
.	.	16CCJk)
.	.	8DD'L
.	.	8DD'
[4cc	[4a	8DD'
.	.	8DD'J
=78	=78	=78
4cc]	4a]	(8.GGL
.	.	16AAJk)
2b-	2g	(8.BB-L
.	.	16CJk)
.	.	8D'L
.	.	8D'
4a	4f#	8D'
.	.	8D'J
=79	=79	=79
4r	4r	(8.GL
.	.	16AJk)
(2bb-	4dd	(8.B-L
.	.	16cJk)
.	4cc#	8d'L
.	.	8d'
[4aa)	4cc	8d'
.	.	8d'J
=80	=80	=80
4aa]	4b	(8dL
.	.	8e-
(2gg	4b-	8d
.	.	8c#J)
.	2a	4d
4ff#)	.	4D
*v	*v	*
=81	=81
*	*^
12gL	4r	4r
12a-	.	.
12aJ	.	.
12b-L	4B-	4G
12cc	.	.
12cc#J	.	.
8dd'L	4A	4F#
8dd'	.	.
8dd'	4A-	4F
8dd'J	.	.
=82	=82	=82
12ggL	4G	4E
12aa-	.	.
12aaJ	.	.
12bb-L	2G	4E-
12ccc	.	.
12ccc#J	.	.
8ddd'L	.	2D
8ddd'	.	.
8ddd'	4F#	.
8ddd'J	.	.
=83	=83	=83
16eee-LL	(4F#	(4C
16aa	.	.
16bb-	.	.
16aaJJ	.	.
16cccLL	4e-)	4A)
16ff#	.	.
16gg	.	.
16ff#JJ	.	.
16ggLL	4d	4B-
16dd	.	.
16ee-	.	.
16ddJJ	.	.
16ee-LL	4c	4C
16a	.	.
16b-	.	.
16aJJ	.	.
*	*v	*v
=84	=84
*	*^
16ddLL	(4B-	2D
16g	.	.
16a	.	.
16gJJ	.	.
16ccLL	4A)	.
16f#	.	.
16g	.	.
16f#JJ	.	.
4g	2r	4G
4r	.	4GG
*clefG2	*clefG2	*clefG2
*	*v	*v
=85:|!|:	=85:|!|:
*k[f#]	*k[f#]
*	*^
[1gg	4g	4B
.	4g	4B
.	4f#	4d
.	8f#L	4d
.	8gJ	.
=86	=86	=86
4.gg]	4e	4c
.	8eL	4c
16ff#LL	8gJ	.
16ggJJ	.	.
16ggLL	2d	2B
16bb	.	.
16aa	.	.
16cccJJ	.	.
16bbLL	.	.
16ddd	.	.
16ccc	.	.
16eeeJJ	.	.
*	*v	*v
=87	=87
*	*^
[1ddd	4cc	4f#
.	8ccL	8f#L
.	8ccJ	8f#J
.	(8ccL	4g
.	8b)	.
.	8a'	4r
.	8g'J	.
=88	=88	=88
4.ddd]	4g 4b	2d
.	4f# 4a	.
16ccc#LL	.	.
16dddJJ	.	.
4gg	[2g	2r
4r	.	.
*	*v	*v
=89	=89
*^	*
4gg	4b	1g_
4gg	4b	.
4ff#	4dd	.
8ff#L	4dd	.
8ggJ	.	.
=90	=90	=90
4ee	4cc	2.g]
8eeL	4cc	.
8ggJ	.	.
2dd	2b	.
.	.	8.g#L
.	.	32f#LL
.	.	32g#JJJ
*v	*v	*
=91	=91
*	*^
4cc	(8aL	2r
.	8e	.
[4ccc	8f#	.
.	8dJ)	.
(8cccL]	4g	4r
8bb)	.	.
8aa'	8r	8r
8gg'J	8b-	8c#
*	*v	*v
=92	=92
*	*^
4gg	(4bn	2d
(bbq	.	.
4ff#) 4aa	4cc)	.
4gg	4b	4g
*	*clefF4	*clefF4
4r	4r	4G
=93	=93	=93
[1ee	4d	4G#
.	4d	4G#
.	4c	4A
*	*clefG2	*clefG2
.	8.r	8.r
.	16cc	16a
=94	=94	=94
2.ee]	4dd	4g#
.	4dd	4g#
.	4cc	4a
8.ee-L	4r	4r
32ddLL	.	.
32ee-JJJ	.	.
*	*clefF4	*clefF4
*	*v	*v
=95	=95
*	*^
[1dd	4c	4F#
.	4c	4F#
.	4B	4G
*	*clefG2	*clefG2
.	8.r	8.r
.	16b	16g
=96	=96	=96
1dd]	4cc	4f#
.	4cc	4f#
.	4b	4g
.	4r	4r
*	*clefG2	*clefG2
*	*v	*v
=97	=97
*	*^
[1gg	4g	4B
.	4g	4B
.	4f#	4d
.	8f#L	4d
.	8gJ	.
=98	=98	=98
4.gg]	4e	4c
.	8eL	4c
16ff#LL	8gJ	.
16ggJJ	.	.
16ggLL	2d	2B
16bb	.	.
16aa	.	.
16cccJJ	.	.
16bbLL	.	.
16ddd	.	.
16ccc	.	.
16eeeJJ	.	.
=99	=99	=99
[1ddd	4cc	4f#
.	8ccL	8f#L
.	8ccJ	8f#J
.	(8ccL	4g
.	8b)	.
.	8a'	4r
.	8g'J	.
=100	=100	=100
4.ddd]	4g 4b	2d
.	4f# 4a	.
16ccc#LL	.	.
16dddJJ	.	.
4gg	4g	2r
4r	4G	.
*	*clefF4	*clefF4
*	*v	*v
=101	=101
*^	*
4dd	4g#	[1E
4dd	4g#	.
4cc	4a	.
8.r	4r	.
16aa	.	.
=102	=102	=102
4ddd	4gg#	2.E]
4ddd	4gg#	.
(4ccc#	(4aa	.
[4ccc)	4gg)	8.E-L
.	.	32DLL
.	.	32E-JJJ
=103	=103	=103
8cccL]	4ff#	[1D
8aa	.	.
8gg	4cc	.
8ff#J	.	.
8ggL	4b	.
8dd	.	.
8b	4g#	.
8eeJ	.	.
=104	=104	=104
8ddL	4a	4.D]
8cc#	.	.
8a	[4f#	.
8ddJ	.	16C#LL
.	.	16DJJ
(4cc	(4f#]	[2GG
8b)	8g)	.
8r	8r	.
=105	=105	=105
4gg	4r	1GG_
(4gg	(4cc#	.
4ff#	4dd	.
4ff	4b	.
*v	*v	*
=106	=106
*^	*
*	*^	*
4ee	2cc)	4r	2.GG]
*	*v	*v	*
4ee-)	4f#	.
*	*^	*
2dd	2b	4g	.
*	*v	*v	*
.{4}.	4f	8.GG#L
.	.	32FF#LL
.	.	32GG#JJJ
*v	*v	*
=107	=107
*^	*
*	*^	*
4cc#	2a	4e	(8AAL
.	.	.	8EE
*	*v	*v	*
[4cc	[4d	8FF#
.	.	8DDJ)
*	*^	*
(8ccL]	4g	4d]	4GGn
*	*v	*v	*
8b)	.	.
*	*^	*
8a'	4r	4r	8r
*	*v	*v	*
8B-'J 8e' 8g'	.	8C#
*v	*v	*
=108	=108
(4B 4d 4g	(4D
8cL 8f# 8b	4DD)
8aJ)	.
4B 4g	4GG
4r	4r
*clefG2	*clefF4
=109:|!|:	=109:|!|:
*	*^
4B 4g	2G	2E
4c# 4g	.	.
4d 4f#	4A	4D
(8f#L	[4d	4B
8gJ)	.	.
*	*v	*v
=110	=110
*	*^
4e	4d]	4G#
(8eL	2cn	4A
8f#J)	.	.
4d	.	4F#
8r	[4B	4G
8dd	.	.
=111	=111	=111
(8ddL	4B]	4E
8ccJ)	.	.
8r	2A	4F#
8cc	.	.
(8ccL	.	4D#
8bJ)	.	.
8r	[4G	4E
8ee	.	.
=112	=112	=112
(12eeL	4G]	4C
12cc	.	.
12aJ)	.	.
8r	4c	4D 4F#
8dd	.	.
(8ddL	4B	4G
8gJ)	.	.
4r	4r	4GG
=113	=113	=113
*^	*	*
4gg	4r	4r	4r
4gg	4cc#	4e	4A#
4ff#	4dd	4d	4B
4ff#	4cc	4d#	4A
=114	=114	=114	=114
4ee	4b	4e	4G
(8eeL	4cc#	4r	4A 4g
8ff#J)	.	.	.
4dd	[2dd	4.r	4d 4f#
*	*	*clefG2	*clefG2
4ff#	.	.	4r
.	.	8b	.
*v	*v	*	*
*	*v	*v
=115	=115
*^	*
4gg	4dd]	(8bL
.	.	8eJ)
4aa	2ccn	8r
.	.	8a
4ff#	.	(8aL
.	.	8dJ)
*	*	*clefF4
[4gg	8bL	4e
.	8eeJ	.
=116	=116	=116
*	*	*^
4gg]	(8eeL	4r	4C
.	8aJ)	.	.
4ff#	8r	4c	4D
.	8dd	.	.
4gg	(8ddL	4B	4G
.	8gJ)	.	.
4r	4r	4r	4GG
*v	*v	*	*
*	*v	*v
=117	=117
4ee	1r
8ee'L	.
8dd'J	.
(8ddL	.
8cc)	.
8b'	.
8a'J	.
=118	=118
4g#	4e
(4gg#	8e'L
.	8d'J
4aa)	(8dL
.	8c)
4r	8B'
.	8A'J
=119	=119
4dd	4F#
8dd'L	(4f#
8cc'J	.
(8ccL	4g)
8b)	.
8a'	4r
8g'J	.
=120	=120
4f#	4d
(4ff#	8d'L
.	8c'J
4gg)	(8cL
.	8B)
4r	8A'
.	8G'J
=121	=121
4gg	4r
4gg	8B'L
.	8c'J
4ff#	(8c#L
.	8d)
(8ff#L	8A'
8ggJ)	8B'J
=122	=122
*^	*
(8ff#L	2r	(8BL
8ee)	.	8cn)
8ee'	.	8G'
8ff#'J	.	8A'J
(8eeL	4r	(8A#L
8dd)	.	8B)
8dd'	8r	8F#'
8ee'J	8b	8G#'J
*v	*v	*
=123	=123
*^	*
(8ddL	(8bL	4A
8cc)	8eJ)	.
8cc'	8r	4F#
8dd'J	8a	.
(8ccL	(8aL	4G
8bJ)	8dJ)	.
[4g	8r	4E
.	8e	.
=124	=124	=124
(4g] 4a	(8eL	4C
.	8AJ)	.
4f# 4cc	8r	4D
.	8d	.
4g) 4b	(8dL	4GG
.	8GJ)	.
4gg	4r	4r
*v	*v	*
=125	=125
1r	4E
.	8E'L
.	8D'J
.	(8DL
.	8C)
.	8BB'
.	8AA'J
=126	=126
4ee	4GG#
8ee'L	(8.G#L
8dd'J	.
.	32F#LL
.	32G#JJJ
(8ddL	4A)
8cc)	.
8b'	4r
8a'J	.
=127	=127
4f#	4d
(8.ff#L	8d'L
.	8c'J
32eeLL	.
32ff#JJJ	.
4gg)	(8cL
.	8B)
4r	8A'
.	8G'J
=128	=128
4ddd	4F#
8ddd'L	(8.f#L
8ccc'J	.
.	32eLL
.	32f#JJJ
(8cccL	4g)
8bb)	.
8aa'	4r
8gg'J	.
=129	=129
4r	4g
8bb'L	4g
8ccc'J	.
(8ccc#L	4f#
8ddd)	.
8aa'	8f#'L
8bb'J	8g'J
=130	=130
*^	*
(8bbL	4r	(8fL
8cccn)	.	8e)
8gg'	2r	8e'
8aa'J	.	8f#'J
(8aa#L	.	(8eL
8bb)	.	8d#)
8ff#'	8r	8d'
8gg#'J	8ee	8e'J
*v	*v	*
=131	=131
*^	*
(8gg#L	(8eeL	(8dL
8aa)	8aJ)	8c#)
8ee'	8r	8c'
8ff#'J	8dd	8d'J
(8ff#L	(8ddL	(8cL
8ggJ)	8gJ)	8BJ)
(4e 4g 4b	4r	8r
.	.	8E
*v	*v	*
=132	=132
4e) 4g 4cc	(8EL
.	8AAJ)
(4A 4c 4f#	8r
.	8D
4G) 4B 4g	(8DL
.	8GGJ)
4r	4r
*clefG2	*clefF4
=133||!|:	=133||!|:
*^	*
4r	16r	4GG 4G
.	16BLL	.
.	16g	.
.	16BJJ	.
4gg	16r	4r
.	16BLL	.
.	16g	.
.	16BJJ	.
4ff#	16r	4r
.	16BLL	.
.	16g	.
.	16BJJ	.
4r	16r	4FF# 4F#
.	16BLL	.
.	16g	.
.	16BJJ	.
*v	*v	*
=134	=134
*^	*
4r	16r	4EE 4E
.	16BLL	.
.	16g	.
.	16BJJ	.
4gg	16r	4r
.	16BLL	.
.	16g	.
.	16BJJ	.
4dd	16r	4r
.	16BLL	.
.	16g	.
.	16BJJ	.
4r	16r	4DD 4D
.	16BLL	.
.	16g	.
.	16BJJ	.
=135	=135	=135
4r	16r	4CC 4C
.	16eLL	.
.	16g	.
.	16eJJ	.
4ccc	16r	4r
.	16eLL	.
.	16g	.
.	16eJJ	.
4bb	16r	2r
.	16dLL	.
.	16g	.
.	16dJJ	.
4gg	16r	.
.	16BLL	.
.	16g	.
.	16BJJ	.
*v	*v	*
=136	=136
*^	*
4ddd	16r	1r
.	16ALL	.
.	16f#	.
.	16AJJ	.
4ff#	16r	.
.	16cLL	.
.	16a	.
.	16cJJ	.
4gg	16r	.
.	16BLL	.
.	16g	.
.	16BJJ	.
4dd	16r	.
.	16BLL	.
.	16g	.
.	16BJJ	.
=137:|!	=137:|!	=137:|!
4r	16r	4EE 4E
.	16BLL	.
.	16g#	.
.	16BJJ	.
4eee	16r	4r
.	16BLL	.
.	16g#	.
.	16BJJ	.
4ccc	16r	2r
.	16cLL	.
.	16a	.
.	16cJJ	.
4aa	16r	.
.	16eLL	.
.	16cc	.
.	16eJJ	.
*v	*v	*
=138	=138
*^	*
4gg#	16r	4r
.	16bLL	.
.	16dd	.
.	16bJJ	.
4r	16r	4E 4e
.	16g#LL	.
.	16b	.
.	16g#JJ	.
2r	16r	4C 4c
.	16aLL	.
.	16ee	.
.	16aJJ	.
.	16r	4AA 4A
.	16eLL	.
.	16cc	.
.	16eJJ	.
=139	=139	=139
4r	16r	4DD 4D
.	16ALL	.
.	16f#	.
.	16AJJ	.
4ddd	16r	4r
.	16ALL	.
.	16f#	.
.	16AJJ	.
4bb	16r	2r
.	16BLL	.
.	16g	.
.	16BJJ	.
4gg	16r	.
.	16dLL	.
.	16b	.
.	16dJJ	.
*v	*v	*
=140	=140
*^	*
4ff#	16r	4r
.	16aLL	.
.	16cc	.
.	16aJJ	.
4r	16r	4D 4d
.	16f#LL	.
.	16a	.
.	16f#JJ	.
2r	16r	4BB 4B
.	16gLL	.
.	16dd	.
.	16gJJ	.
.	16r	4GG 4G
.	16dLL	.
.	16b	.
.	16dJJ	.
=141	=141	=141
4r	16r	4GG 4G
.	16BLL	.
.	16g	.
.	16BJJ	.
4gg	16r	4r
.	16BLL	.
.	16g	.
.	16BJJ	.
4r	16r	4FF# 4F#
.	16BLL	.
.	16g	.
.	16BJJ	.
4ff#	16r	4r
.	16BLL	.
.	16g	.
.	16BJJ	.
=142	=142	=142
4r	16r	4EE 4E
.	16BLL	.
.	16g	.
.	16BJJ	.
4ee	16r	4r
.	16BLL	.
.	16g	.
.	16BJJ	.
4r	16r	4DD 4D
.	16BLL	.
.	16g	.
.	16BJJ	.
4dd	16r	4r
.	16BLL	.
.	16g	.
.	16BJJ	.
*v	*v	*
=143	=143
*^	*
4r	16r	4CC 4C
.	16eLL	.
.	16g	.
.	16eJJ	.
4ccc	16r	4r
.	16eLL	.
.	16g	.
.	16eJJ	.
4bb	16r	2r
.	16dLL	.
.	16g	.
.	16dJJ	.
4gg	16r	.
.	16BLL	.
.	16g	.
.	16BJJ	.
=144	=144	=144
4ddd	16r	1r
.	16ALL	.
.	16f#	.
.	16AJJ	.
4ff#	16r	.
.	16cLL	.
.	16a	.
.	16cJJ	.
4gg	16r	.
.	16BLL	.
.	16g	.
.	16BJJ	.
4dd	16r	.
.	16BLL	.
.	16g	.
.	16BJJ	.
*v	*v	*
=145	=145
*^	*
4r	16r	4EE 4E
.	16BLL	.
.	16g#	.
.	16BJJ	.
4eee	16r	4r
.	16BLL	.
.	16g#	.
.	16BJJ	.
4ccc	16r	2r
.	16cLL	.
.	16a	.
.	16cJJ	.
4aa	16r	.
.	16eLL	.
.	16cc	.
.	16eJJ	.
=146	=146	=146
4gg#	16r	4r
.	16bLL	.
.	16dd	.
.	16bJJ	.
4r	16r	4E 4e
.	16g#LL	.
.	16b	.
.	16g#JJ	.
2r	16r	4C 4c
.	16aLL	.
.	16ee	.
.	16aJJ	.
.	16r	4AA 4A
.	16eLL	.
.	16cc	.
.	16eJJ	.
*v	*v	*
=147	=147
*^	*
4r	16r	4DD 4D
.	16ALL	.
.	16f#	.
.	16AJJ	.
4ddd	16r	4r
.	16ALL	.
.	16f#	.
.	16AJJ	.
4bb	16r	2r
.	16BLL	.
.	16g	.
.	16BJJ	.
4gg	16r	.
.	16dLL	.
.	16b	.
.	16dJJ	.
=148	=148	=148
4ff#	16r	4r
.	16aLL	.
.	16cc	.
.	16aJJ	.
4r	16r	4D 4d
.	16f#LL	.
.	16a	.
.	16f#JJ	.
2r	16r	4BB 4B
.	16gLL	.
.	16dd	.
.	16gJJ	.
.	16r	4GG 4G
.	16dLL	.
.	16b	.
.	16dJJ	.
*v	*v	*
=149	=149
*^	*
4r	16r	4GG 4G
.	16BLL	.
.	16g	.
.	16BJJ	.
4gg	16r	4r
.	16BLL	.
.	16g	.
.	16BJJ	.
4r	16r	4FF# 4F#
.	16BLL	.
.	16g	.
.	16BJJ	.
4ff#	16r	4r
.	16BLL	.
.	16g	.
.	16BJJ	.
=150	=150	=150
4r	16r	4FF 4F
.	16BLL	.
.	16g	.
.	16BJJ	.
4ff	16r	4r
.	16BLL	.
.	16g	.
.	16BJJ	.
4r	16r	4EE 4E
.	16cLL	.
.	16g	.
.	16cJJ	.
4ee	16r	4r
.	16cLL	.
.	16g	.
.	16cJJ	.
*v	*v	*
=151	=151
*^	*
4r	16r	4EE- 4E-
.	16c#LL	.
.	16g	.
.	16c#JJ	.
4ee-	16r	4r
.	16c#LL	.
.	16g	.
.	16c#JJ	.
4r	16r	4DD 4D
.	16dLL	.
.	16g	.
.	16dJJ	.
4dd	16r	4r
.	16dLL	.
.	16g	.
.	16dJJ	.
*v	*v	*
=152	=152
16r	[1CC# [1C#
16eLL	.
16g	.
16eJJ	.
16b-LL	.
16g	.
16cc#	.
16b-JJ	.
16eeLL	.
16cc#	.
16gg	.
16eeJJ	.
16bb-LL	.
16gg	.
16ccc#	.
16bb-JJ	.
=153	=153
16eeeLL	1CC#] 1C#]
16ccc#	.
16bb-	.
16ccc#JJ	.
16ggLL	.
16bb-	.
16ee	.
16ggJJ	.
16cc#LL	.
16ee	.
16b-	.
16cc#JJ	.
16gLL	.
16b-	.
16e	.
16gJJ	.
=154	=154
16f#LL	4Cn 4cn
16d	.
16c#	.
16dJJ	.
16gLL	4BB 4B
16d	.
16c#	.
16dJJ	.
16f#LL 16a	4AA 4A
16d	.
16c#	.
16dJJ	.
16gLL 16b	4GG 4G
16d	.
16c#	.
16dJJ	.
=155	=155
16ccLL	4FF# 4F#
16a	.
16b	.
16ccJJ	.
16ddLL	4r
16ee	.
16ff#	.
16ggJJ	.
16aaLL	2r
16gg	.
16ff#	.
16ggJJ	.
16aaLL	.
16bb	.
16aa	.
16bbJJ	.
=156	=156
*	*^
16cccLL	2r	2r
16ddd	.	.
16eee	.	.
16dddJJ	.	.
16cccLL	.	.
16bb	.	.
16aa	.	.
16gg#JJ	.	.
*	*clefG2	*clefG2
*	*v	*v
16aaLL	[4cc
16bb	.
16ccc	.
16bbJJ	.
16aaLL	16ccLL]
16gg	16b
16ff#	16a
16eeJJ	16gJJ
=157	=157
16ff#LL	[4a
16gg	.
16aa	.
16ggJJ	.
16ff#LL	16aLL]
16ee	16g
16dd	16f#
16cc#JJ	16eJJ
16ddLL	8f#L
16dd#	.
16ee	16gL
16ddJJ	16f#JJ
16ccLL	16eLL
16b	16d
*	*clefF4
16a	16c
16g#JJ	16BJJ
=158	=158
16aLL	[4c
16b	.
16cc	.
16bJJ	.
16aLL	16cLL]
16gn	16B
16f#	16A
16eJJ	16GJJ
16f#LL	[4A
16g	.
16a	.
16gJJ	.
16f#LL	16ALL]
16e	16G
16d	16F#
16c#JJ	16EJJ
=159	=159
16dLL	8F#L
16d#	.
16e	16GL
16dJJ	16F#JJ
*clefF4	*
16cnLL	16ELL
16B	16D
16A	16C
16G#JJ	16BBJJ
16ALL	[4C
16B	.
16c	.
16BJJ	.
16ALL	16CLL]
16G	16BB
16F#	16AA
16EJJ	16GGJJ
=160	=160
16F#LL	[4AA
16G	.
16A	.
16GJJ	.
16F#LL	16AALL]
16E	16GG
16D	16FF#
16C#JJ	16EEJJ
16DLL	8FF#L
16D#	.
16E	16GGL
16DJJ	16FF#JJ
16CLL	16EELL
16BB	16DD
16AA	16CC
16GG#JJ	16BBBJJ
=161	=161
16AALL	4.CC
16BB	.
16C	.
16BBJJ	.
16AALL	.
16BB	.
16GGn	8BBB
16AAJJ	.
16FF#LL	4.AAA
16GG	.
16AA	.
16GGJJ	.
16FF#LL	.
16GG	.
16EE	8GGG
16FF#JJ	.
=162	=162
[2DD;	2FFF#;
16.DDLL]	2r
64EELL	.
64FF#JJJ	.
64GGLLL	.
64AA	.
64BB	.
64C#	.
64D	.
64E	.
64F#	.
64GJJJJ	.
64ALLLL	.
64B	.
64c#	.
64d	.
*clefG2	*
64e	.
64f#	.
64g	.
64aJJJ	.
64bLLL	.
64cc#	.
64dd	.
64ee	.
64ff#	.
64gg	.
64aa	.
64bbJJJJ	.
=163	=163
*M7/4	*M7/4
(8cccn'L	1..r
8aa'	.
8ff#'	.
8dd'J)	.
8cc#;	.
8.cc;	.
(32ddLLL	.
32ccJJ	.
(32bLL)	.
32cc	.
32b	.
32ccJJ	.
32bLL	.
32cc	.
32b	.
32ccJJ	.
32bLL	.
32cc	.
32b	.
32ccJJJ)	.
(8ddL	.
8cc	.
8b	.
8aJ)	.
*clefG2	*clefF4
=164||	=164||
*met(c|)	*met(c|)
*M2/2	*M2/2
([4g	2GG 2G
32gLLL]	.
32b	.
32dd	.
32ggJJ	.
24ddL	.
24b	.
24gJJ)	.
8bb	4r
16.r	.
32g	.
(8.gL	4GG 4G
32f#LL	.
32gJJJ)	.
=165	=165
[4f#	2FF# 2F#
32f#LLL]	.
32a	.
32dd	.
32aJJ	.
32ff#LL	.
32dd	.
32aa	.
32ff#JJJ	.
8ddd	4r
16.r	.
32f#	.
(8.f#L	4FF# 4F#
32eLL	.
32f#JJJ)	.
=166	=166
8e	4EE 4E
(4eee	.
.	4r
16dddLL	.
16ccc#JJ)	.
(16bbLL	2A 2e 2g
16aa	.
16gg#	.
16aaJJ	.
16bb-LL	.
16bb	.
16ccc	.
16ccc#JJ)	.
=167	=167
(4.ccc#	([2d 2e 2g
16.eeeLL	.
32dddJJk)	.
8dd	8d]) 8f#
4d	8r
.	8D 8F#
[8d	8r
=168	=168
*	*^
16dLL]	2E 2G	2r
(16cn	.	.
16e	.	.
16gJJ	.	.
16ccnLL	.	.
16ee	.	.
16gg	.	.
16cccnJJ)	.	.
(8eee	4A	2F#
4ddd	.	.
.	4d	.
[8ccc)	.	.
*	*v	*v
=169	=169
(16cccLL]	8G
16bb	.
16ddd	8r
16ff#JJ	.
16aaLL	8B
16gg	.
16bb	8r
16dd#JJ)	.
(16ff#LL	8c
16ee	.
16gg	8r
16bJJ	.
16ddLL	4r
16cc	.
16b	.
16aJJ)	.
=170	=170
[4dd	[2D [2B
16ddLL]	.
16dd#J	.
24eeL	.
24cc	.
24aJJ	.
8g	8D] 8B]
8r	8r
8f#	8D 8A
8r	8r
=171	=171
(2c [2d 2f# 2a	(4G
.	4D)
8B) 8d] 8g	8GG
8r	8r
4r	4r
=172	=172
([4g	2GG 2G
28gLL]	.
28a	.
28b	.
28cc	.
28dd	.
56eeL	.
56ff#	.
56gg	.
56JJJ	.
8bb)	4r
16.r	.
32g	.
(8.gL	4GG 4G
32f#LL	.
32gJJJ)	.
=173	=173
[4f#	2FF# 2F#
(60f#LLL]	.
60a	.
60g	.
60f#	.
60g	.
60a	.
60b	.
60cc#	.
60dd	.
60ee	.
60ff#	.
60gg	.
60aa	.
60bb	.
60ccc#JJJ	.
8ddd)	4r
16.r	.
32f#	.
(8.f#L	4FF# 4F#
32eLL	.
32f#JJJ)	.
=174	=174
(24gLL	4EE 4E
24e)	.
24b'J	.
(24aL	.
24g)	.
24ee'JJ	.
(24ddLL	4r
24cc#)	.
24gg'J	.
(24ff#L	.
24ee)	.
24bb'JJ	.
(24aaLL	2A 2e 2g
24gg)	.
24eee'J	.
(24dddL	.
24ccc#	.
24bbJJ	.
24aaLL	.
24gg#	.
24aaJ	.
24bb-L	.
24bb	.
24ccc#JJ)	.
=175	=175
(4.ccc#	([2d 2e 2g
16.eeeLL	.
32dddJJk)	.
8dd	8d]) 8f#
4d	8r
.	8D 8F#
[8d	8r
=176	=176
*	*^
32dLLL]	2E 2G	2r
32cn	.	.
32e	.	.
32dJJ	.	.
32fLL	.	.
32e	.	.
32g	.	.
32fJJJ	.	.
32aLLL	.	.
32g	.	.
32b	.	.
32aJJ	.	.
32ccLL	.	.
32b	.	.
32dd	.	.
32ccJJJ	.	.
32eeLLL	4A	2F#
32dd	.	.
32ff#	.	.
32eeJJ	.	.
32ggLL	.	.
32ff#	.	.
32aa	.	.
32ggJJJ	.	.
32bbLLL	4d	.
32aa	.	.
32ccc	.	.
32bbJJ	.	.
32dddLL	.	.
32ccc	.	.
32eee	.	.
32cccJJJ	.	.
*	*v	*v
=177	=177
*	*^
(24aa#LL	8d	8G
24bb)	.	.
24ddd'J	.	.
(24ff#L	8r	8r
24gg)	.	.
24bb'JJ	.	.
(24dd#LL	4r	4r
24ee)	.	.
24gg'J	.	.
(24bL	.	.
24cc)	.	.
24ee'JJ	.	.
(24g#LL	8e	8c
24a)	.	.
24eeJ	.	.
24dd#L	8r	8r
24dd	.	.
24cc#JJ	.	.
24ccLL	4r	4r
24b	.	.
24aJ	.	.
24bL	.	.
24cc	.	.
24cc#JJ	.	.
*	*v	*v
=178	=178
[4dd	[2D [2B
(16.ddLL]	.
32dd#Jk	.
24eeL	.
24cc	.
24aJJ)	.
8g	8D] 8B]
8r	8r
8f#	8D 8A
8r	8r
=179	=179
(2c [2d 2f# 2a	(4G
.	4D)
8B) 8d] 8g	8GG
8r	8r
4r	4r
=180	=180
4..E 4..B 4..d 4..e	4GGG# 4GG#
.	4GG#
16e	.
4..E 4..B 4..d 4..e	4GGG# 4GG#
.	4GG#
16e	.
=181	=181
4E 4A 4c [4e	2AAA 2AA
32eLLL]	.
32d	.
32c	.
32BJJ	.
32ALL	.
32B	.
32c	.
32dJJJ	.
32eLLL	2r
32f#	.
32g#	.
32aJJ	.
32bLL	.
32cc	.
32dd	.
32eeJJJ	.
24ff#LL	.
24gg#	.
24aaJ	.
24bbL	.
24ccc	.
24dddJJ	.
*	*clefG2
=182	=182
4eee	4e 4g# 4dd
4eee	4e 4g# 4dd
4eee	4e 4g# 4dd
4eee	4e 4g# 4dd
=183	=183
(4.eee	4a 4cc
.	4r
8ccc)	.
8aa	2r
8r	.
4r	.
*clefF4	*clefF4
=184	=184
4..D 4..A 4..c 4..d	4FFF# 4FF#
.	4FF#
16d	.
4..D 4..A 4..c 4..d	4FFF# 4FF#
.	4FF#
16d	.
=185	=185
4D 4G 4B [4d	2GGG 2GG
32dLLL]	.
32c	.
32B	.
32AJJ	.
32GLL	.
32A	.
32B	.
32cJJJ	.
*clefG2	*
32dLLL	2r
32e	.
32f#	.
32gJJ	.
32aLL	.
32b	.
32cc	.
32ddJJJ	.
24eeLL	.
24ff#	.
24ggJ	.
24aaL	.
24bb	.
24cccJJ	.
*	*clefG2
=186	=186
(8ddd'L	4d 4f# 4cc
8ddd'	.
8ddd'	4d 4f# 4cc
8ddd'J	.
8ddd'L	4d 4f# 4cc
8ddd'	.
8ddd'	4d 4f# 4cc
8ddd'J)	.
=187	=187
(8.dddL	4g 4b
16bbJk	.
32dddLLL	4r
32bb	.
32ddd	.
32bbJJ	.
32dddLL	.
32bb	.
32ddd	.
32bbJJJ	.
8gg)	2r
8r	.
4r	.
*	*clefF4
=188	=188
[8gL	2GG 2G
24gL]	.
24a'	.
24b'JJ	.
24cc'LL	.
24dd'	.
24ee'J	.
24ff#'L	.
24gg'	.
24aa'JJ	.
8bb	4r
16.r	.
32g	.
(8.gL	4GG 4G
32f#LL	.
32gJJJ)	.
=189	=189
24f#'LL	2FF# 2F#
24g'	.
24a'J	.
24bL	.
24cc#'	.
24dd'JJ	.
24ee'LL	.
24ff#'	.
24gg'J	.
24aa'L	.
24bb'	.
24ccc#'JJ	.
8ddd	4r
16.r	.
32f#	.
(8.f#L	4FF# 4F#
32eLL	.
32f#JJJ)	.
=190	=190
(16eLL	4EE 4E
16cc#	.
16g	.
16eeJJ	.
16cc#LL	4r
16gg	.
16ee	.
16ccc#JJ)	.
(16ggLL	2A 2e 2g
16eee	.
16ddd	.
16ccc#JJ	.
16bbLL	.
16aa	.
16gg#	.
16aaJJ)	.
=191	=191
*	*^
(4..aa	4g	2d
.	8f#L	.
.	8eJ	.
16ddd)	.	.
8ddL	8f#	8d
8dd	8r	8r
8dd	(4D 4F#	4r
[8dJ [8dd	.	.
*	*v	*v
=192	=192
8d] 8dd]	4E 4G
4c# 4cc#	.
.	4G 4B-
4e- 4ee-	.
.	4F# 4A
4d 4dd	.
.	4D#) 4F#
8c [8cc	.
=193	=193
(12ccL]	8d
12b	.
.	8r
12ggJ)	.
(12ff#'L	4r
12ff'	.
12ee'J)	.
(8dd#	8e
4ee)	8r
.	4r
(32ddLLL	.
32cc	.
32b	.
32aJJJ)	.
=194	=194
16ddLL	[2D [2B
16cc#	.
16cc	.
16bJJ	.
16ddLL	.
16cc#	.
16cc	.
16bJJ	.
8ddL	8D] 8B]
8ccJ	8r
8..r	8D 8A
.	8r
32f#	.
=195	=195
(2c [2d 2f# 2a	(4G
.	4D)
8B) 8d] 8g	8GG
8r	8r
4r	4r
=196	=196
4..E 4..B 4..d 4..e	4GGG# 4GG#
.	4GG#
16e	.
4..E 4..B 4..d 4..e	4GGG# 4GG#
.	4GG#
16e	.
=197	=197
8EL 8A 8c [8e	2AAA 2AA
(32eLL]	.
32f	.
32e	.
32d#JJJ	.
32eLLL	.
32fn	.
32f#	.
32gnJJ	.
32g#LL	.
32a	.
32b-	.
32bJJJ	.
32ccnLLL	2r
32cc#	.
32dd	.
32dd#JJ	.
32eeLL	.
32ff	.
32ff#	.
32ggJJJ	.
32gg#LLL	.
32aa	.
32bb-	.
32bbJJ	.
32cccLL	.
32ccc#	.
32ddd	.
32ddd#JJJ)	.
*	*clefG2
=198	=198
8eee	4e 4g# 4dd
4eee	.
.	4e 4g# 4dd
4eee	.
.	4e 4g# 4dd
4eee	.
.	4e 4g# 4dd
8eee	.
=199	=199
(8.eeeL	4a 4cc
16cccJk	.
32eeeLLL	4r
32ccc	.
32eee	.
32cccJJ	.
32eeeLL	.
32ccc	.
32eee	.
32cccJJJ	.
8aa)	2r
8r	.
4r	.
*clefF4	*clefF4
=200	=200
4..D 4..A 4..c 4..d	4FFF# 4FF#
.	4FF#
16d	.
4..D 4..A 4..c 4..d	4FFF# 4FF#
.	4FF#
16d	.
=201	=201
8DL 8G 8B [8d	2GGG 2GG
(32dLL]	.
32e	.
32d	.
32c#JJJ	.
*clefG2	*
32dLLL	.
32e-	.
32e	.
32fJJ	.
32f#LL	.
32g	.
32g#	.
32aJJJ	.
32b-LLL	2r
32b	.
32cc	.
32cc#JJ	.
32ddLL	.
32ee-	.
32ee	.
32ffJJJ	.
32ff#LLL	.
32gg	.
32gg#	.
32aaJJ	.
32bb-LL	.
32bb	.
32ccc	.
32ccc#JJJ)	.
*	*clefG2
=202	=202
(8ddd'L	4d 4f# 4cc
8ddd'	.
8ddd'	4d 4f# 4cc
8ddd'J	.
8ddd'L	4d 4f# 4cc
8ddd'	.
8ddd'	4d 4f# 4cc
8ddd'J)	.
=203	=203
(8.dddL	4g 4b
16ccc#Jk	.
16cccLL	4r
16bbJ	.
24bb-L	.
24aa	.
24aa-JJ	.
8gg)	2r
8r	.
4r	.
*	*clefF4
=204	=204
4B 4d [4g	4GG 4BB 4D 4G
16gLL]	4r
(32a#q	.
16b)	.
(32cc#q	.
16dd)	.
(32ff#q	.
16ggJJ)	.
(32aa#q	.
8bb)	4r
16.r	.
32g	.
(8.gL	4GG 4G
32f#LL	.
32gJJJ)	.
=205	=205
4f#	2FF# 2AA 2D 2F#
(32g#q	.
16aLL)	.
(32cc#q	.
16dd)	.
(32ee#q	.
16ff#)	.
(32gg#q	.
16aaJJ)	.
(32ccc#q	.
8ddd)	4r
16.r	.
32f#	.
(8.f#L	4FF# 4F#
32eLL	.
32f#JJJ)	.
=206	=206
8e	4EE 4E
4eee	.
.	4r
32dddLLL	.
32ccc#	.
32bb	.
32aaJJJ	.
32ggLLL	2AAA 2AA
32ff#	.
32ee	.
32ddJJ	.
32cc#LL	.
32b	.
32a	.
32g#JJJ	.
32gLLL	.
32f#	.
32e	.
32dJJ	.
*clefF4	*
32c#LL	.
32B	.
32A	.
32GJJJ	.
=207	=207
(8AL	4r
8GJ)	.
32F#q	.
32Gq	.
(4.F#	4D
.	4DD
8G#L	.
8A	4r
8BJ)	.
=208	=208
*^	*
1c	8r	2r
.	8E	.
.	8F#L	.
.	8GJ	.
.	[2A	8r
.	.	(8DD
.	.	8EEL
.	.	8FF#J)
=209	=209	=209
1ryy	8AL] 8B	(8GGL
.	8AJ 8B	8AA
.	8r	8BB
.	8G 8B	8FF#J
.	8r	8GGL
.	8B- 8g	8DD
.	8r	8EE-
.	8B- 8g	8CC#J
*v	*v	*
=210	=210
8r	2DD)
(8G 8B	.
8AL 8c	.
8A#J 8c#	.
8BL 8d	4r
8AJ) 8c	.
8r	4DD
8C 8D 8F# 8A	.
=211	=211
(2C [2D 2F# 2A	[2GGG
8BB) 8D] 8G	8GGG]
8r	8r
4r	4r
*clefG2	*clefF4
=212||!|:	=212||!|:
*M3/8	*M3/8
*	*^
8gL	8r	4.G
8g	(8BL	.
16bL	8dJ)	.
16gJJ	.	.
=213	=213	=213
8f#L	8r	4.F#
8f#	(8AL	.
16aL	8dJ)	.
16f#JJ	.	.
=214	=214	=214
8eL	8r	4.E
8e	(8GL	.
16gL	8c#J)	.
16eJJ	.	.
=215	=215	=215
4d	4.r	8DL
.	.	8F#
[8dd	.	8G#J
=216	=216	=216
(8ddL]	4.r	8AL
8cc#)	.	8E
[8ccJ	.	8F#J
=217	=217	=217
*^	*	*
(8ccL]	8r	8r	4G
8b)	8r	8r	.
16aL	8e	8B-	8C#
16gJJ	.	.	.
=218	=218	=218	=218
(4g	4d	4Bn	4.D
16bLL	8f#	8cn	.
16aJJ)	.	.	.
*v	*v	*	*
=219	=219	=219
4g	8B	8GL
.	8r	8D
8r	8r	8GGJ
*	*clefF4	*clefF4
*	*v	*v
=220:|!	=220:|!
8eL	8G#L 8B 8d
8e	8G# 8B 8d
8eJ	8G#J 8B 8d
=221	=221
16aLL	8A 8c
16b	.
16cc	8r
16ddJ	.
8eeJ	8r
*	*clefG2
=222	=222
8eeL 8eee	8g#L 8b 8dd
8ee 8eee	8g# 8b 8dd
8eeJ 8eee	8g#J 8b 8dd
=223	=223
16eeeLL	8a 8cc
16ddd	.
16ccc	8r
16bbJ	.
8aaJ	8r
*	*clefF4
=224	=224
8dL	8F#L 8A 8c
8d	8F# 8A 8c
8dJ	8F#J 8A 8c
=225	=225
16gnLL	8Gn 8B
16a	.
16b	8r
16ccJ	.
8ddJ	8r
*	*clefG2
=226	=226
8ddL 8ddd	8f#L 8a 8cc
8dd 8ddd	8f# 8a 8cc
8ddJ 8ddd	8f#J 8a 8cc
=227	=227
16dddLL	8g 8b
16ccc	.
16bb	8r
16aaJ	.
8ggJ	8r
*	*clefF4
=228	=228
8bL 8dd 8gg	16GLL
.	16g
8gg	16f#
.	16g
16bbL	16G
16ggJJ	16gJJ
=229	=229
8ff#L	16F#LL
.	16f#
8ff#	16e
.	16f#
16aaL	16F#
16ff#JJ	16f#JJ
=230	=230
8eeL	16ELL
.	16e
8ee	16d#
.	16e
16ggL	16E
16eeJJ	16eJJ
=231	=231
4dd	16DLL
.	16d
.	16F#
.	16f#
[8ddd	16G#
.	16g#JJ
=232	=232
(8dddL]	16ALL
.	16a
8ccc#)	16E
.	16e
[8cccJ	16F#
.	16f#JJ
=233	=233
(8cccL]	16GLL
.	16g
8bb)	16BB
.	16B
*^	*
16aaL	8r	16C#
16ggJJ	.	16c#JJ
=234	=234	=234
(4gg	4b	8DL 8d
.	.	8D 8d
16bbLL	8cc	8DJ 8d
16aaJJ)	.	.
=235	=235	=235
8gg	8b	8GL
8r	8r	8D
8r	8r	8GGJ
*v	*v	*
=236	=236
8eL	8G#L 8B 8d
8e	8G# 8B 8d
8eJ	8G#J 8B 8d
=237	=237
8a'L	8A 8c
(32aLL	8r
32b	.
32cc	.
32ddJJ	.
8eeJ)	8r
*	*clefG2
=238	=238
8eeL 8eee	8g#L 8b 8dd
8ee 8eee	8g# 8b 8dd
8eeJ 8eee	8g#J 8b 8dd
=239	=239
8eee'L	8a 8cc
(32eeeLL	8r
32ddd	.
32ccc	.
32bbJJ	.
8aaJ)	8r
*	*clefF4
=240	=240
8dL	8F#L 8A 8c
8d	8F# 8A 8c
8dJ	8F#J 8A 8c
=241	=241
8gn'L	8Gn 8B
(32gLL	8r
32a	.
32b	.
32ccJJ	.
8ddJ)	8r
*	*clefG2
=242	=242
8ddL 8ddd	8f#L 8a 8cc
8dd 8ddd	8f# 8a 8cc
8ddJ 8ddd	8f#J 8a 8cc
=243	=243
8ddd'L	8g 8b
(32dddLL	8r
32ccc	.
32bb	.
32aaJJ	.
8ggJ)	8r
*	*clefF4
=244	=244
8bL 8dd 8gg	16GGLL
.	16G
8gg	16F#
.	16G
16bbL	16GG
16ggJJ	16GJJ
=245	=245
8ff#L	16FF#LL
.	16F#
8ff#	16E
.	16F#
16aaL	16FF#
16ff#JJ	16F#JJ
=246	=246
8eeL	16EELL
.	16E
8ee	16D#
.	16E
16ggL	16EE
16eeJJ	16EJJ
=247	=247
16bLL	4.DD# 4.D#
16ff#	.
16bb	.
16ff#	.
16bb	.
16ff#JJ	.
=248	=248
16bLL	8EL
16gg	.
16bb	8E
16gg	.
16bb	16GL
16ggJJ	16EJJ
=249	=249
16bLL	8DL
16ff	.
16bb	8D
16ff	.
16bb	16FL
16ffJJ	16DJJ
=250	=250
16ccLL	8CL
16ee	.
16ccc	8C
16ee	.
16ccc	16EL
16eeJJ	16CJJ
=251	=251
16ddLL	4.BBB- 4.BB-
16gg#	.
16ddd	.
16gg#	.
16ddd	.
16gg#JJ	.
=252	=252
16eeLL	4.AAA 4.AA
16ggn	.
16ccc#	.
16gg	.
16ccc#	.
16ggJJ	.
=253	=253
16ff#LL	4.DD# 4.D#
16aa	.
16cccn	.
16aa	.
16ccc	.
16aaJJ	.
=254	=254
16bLL	4.EE 4.E
16gg	.
16bb	.
16gg	.
16bb	.
16ggJJ	.
=255	=255
16ggLL	16BBLL
16g	16B
16f#	16A#
16g	16B
16gg	16BB
16gJJ	16BJJ
=256	=256
16ggLL	16CLL
16a	16c
16g#	16B
16a	16c
16gg	16C
16aJJ	16cJJ
=257	=257
16ggLL	16DLL
16b	16d
16a#	16c#
16b	16d
16gg	16D
16bJJ	16dJJ
=258	=258
16ggLL	16ELL
16cc	16e
16b	16d#
16cc	16e
16gg	16E
16ccJJ	16eJJ
=259	=259
16bbLL	16FLL
16dd	16f
16cc#	16e
16dd	16f
16bb	16F
16ddJJ	16fJJ
=260	=260
16cccLL	16ELL
16gg	16e
16ff#	16d#
16gg	16e
16ccc	16E
16ggJJ	16eJJ
=261	=261
16ccc#LL	16E-LL
16gg	16e-
16ff#	16d
16gg	16e-
16ccc#	16E-
16ggJJ	16e-JJ
=262	=262
4.dd; 4.gg; 4.bb; 4.ddd;	4.D; 4.G; 4.B; 4.d;
=263||	=263||
*met(c)	*met(c)
*M4/4	*M4/4
8r	1r
(16aa#LL	.
16cccJJ	.
8bbL)	.
(16ff#L	.
16aaJJ	.
8ggL)	.
(16cc#L	.
16eeJJ	.
8ddL)	.
(16a#L	.
16ccJJ)	.
=264	=264
16bLL	1r
16dd	.
16f#	.
16aJJ	.
16gLL	.
16b	.
16c#	.
16eJJ	.
16dLL	.
16g	.
*clefF4	*
16A#	.
16cJJ	.
16BLL	.
16d	.
16F#	.
16AJJ	.
=265	=265
24GLL	1r
24B	.
24AJ	.
24GL	.
24F#	.
24EJJ	.
24DLL	.
24G	.
24F#J	.
24EL	.
24D	.
24CJJ	.
24BBLL	.
24E	.
24DJ	.
24CL	.
24BB	.
24AAJJ	.
24GGLL	.
24BB	.
24AAJ	.
24GGL	.
24FF#	.
24EEJJ	.
=266	=266
8.DD;L	1r
16FF#Jk	.
16EELL	.
16GG	.
16FF#	.
16AAJJ	.
16GGLL	.
16BB	.
16AA	.
16CJJ	.
16BBLL	.
16D	.
16C	.
16EJJ	.
=267	=267
32DLLL	1r
32F#	.
32E	.
32GJJ	.
32F#LL	.
32A	.
32G	.
32BJJJ	.
*clefG2	*
32ALLL	.
32c	.
32B	.
32dJJ	.
32cLL	.
32e	.
32d	.
32f#JJJ	.
32eLLL	.
32g	.
32f#	.
32aJJ	.
32gLL	.
32b	.
32a	.
32ccJJJ	.
32bLLL	.
32dd	.
32cc	.
32eeJJ	.
32ddLL	.
32ff#	.
32ee	.
32ggJJJ	.
=268	=268
32ff#LLL	1r
32aa	.
32gg	.
32bbJJ	.
32aaLL	.
32ccc	.
32bb	.
32dddJJJ	.
[4ccc	.
16cccLL]	.
(16aa	.
16ff#	.
16ddJJ	.
16cc#LL	.
16cc	.
16a	.
16f#JJ)	.
=269||	=269||
*M3/8	*M3/8
16dLL	4.r
16a	.
16f#	.
16a	.
16f#	.
16aJJ	.
*	*clefG2
=270	=270
16dLL	8cccL
16a	.
16f#	8ccc
16a	.
16f#	16cccL
16aJJ	16dddJJ
=271	=271
16dLL	8bbL
16b	.
16g	8bb
16b	.
16g	16bbL
16bJJ	16cccJJ
=272	=272
16dLL	8aaL
16cc	.
16a	8aa
16cc	.
16a	16aaL
16ccJJ	16bbJJ
=273	=273
16dLL	8gg
16dd	.
16b	8r
16dd	.
16b	8r
16ddJJ	.
*	*clefF4
=274	=274
16dLL	8F#L
16cc	.
16a	8F#
16cc	.
16a	16F#L
16ccJJ	16DJJ
=275	=275
16dLL	8GL
16b	.
16g	8G
16b	.
16g	16GL
16bJJ	16DJJ
=276	=276
16dLL	8AL
16a	.
16f#	8A
16a	.
16f#	16AL
16aJJ	16DJJ
=277	=277
16dLL	8B
16g	.
16f#	8r
16g	.
16f#	8r
16gJJ	.
*	*clefG2
=278	=278
16dLL	8cccL
16a	.
16f#	8ccc
16a	.
16f#	16cccL
16aJJ	16dddJJ
=279	=279
16dLL	8bb-L
16b-	.
16g	8bb-
16b-	.
16g	16bb-L
16b-JJ	16cccJJ
=280	=280
16dLL	8aaL
16cc	.
16a	8aa
16cc	.
16a	16aaL
16ccJJ	16bb-JJ
=281	=281
16dLL	8gg
16dd	.
16b-	8r
16dd	.
*	*clefF4
16b-	8r
16ddJJ	.
*	*clefF4
=282	=282
16dLL	8F#L
16cc	.
16a	8F#
16cc	.
16a	16F#L
16ccJJ	16DJJ
=283	=283
16dLL	8GL
16b-	.
16g	8G
16b-	.
16g	16GL
16b-JJ	16DJJ
=284	=284
16dLL	8AL
16a	.
16f#	8A
16a	.
16f#	16AL
16aJJ	16DJJ
=285	=285
16dLL	8B
16g	.
16f#	8r
16g	.
16f#	8r
16gJJ	.
*	*clefG2
=286	=286
16dLL	8dddL
16a	.
16f#	8ddd
16a	.
16f#	16dddL
16aJJ	16aaJJ
=287	=287
16dLL	8bb-
16b-	.
16g	8r
16b-	.
16g	8r
16b-JJ	.
*	*clefF4
=288	=288
16dLL	8F#L
16cc	.
16a	8F#
16cc	.
16a	16F#L
16ccJJ	16DJJ
=289	=289
16dLL	8G
16b-	.
16g	8r
16b-	.
16g	8r
16b-JJ	.
*	*clefG2
=290	=290
16B-LL	8bb-L
16f	.
16d	8bb-
16f	.
16d	16bb-L
16fJJ	16ffJJ
=291	=291
16B-LL	8gg
16g	.
16e-	8r
16g	.
16e-	8r
16gJJ	.
*	*clefF4
=292	=292
16B-LL	8DL
16a-	.
16f	8D
16a-	.
16f	16DL
16a-JJ	16BB-JJ
=293	=293
16B-LL	8E-
16g	.
16e-	8r
16g	.
16e-	8r
16gJJ	.
*	*clefG2
=294	=294
16GLL	8ggnL
16d	.
16B	8gg
16d	.
16B	16ggL
16dJJ	16ddnJJ
=295	=295
16GLL	8ee-
16e-	.
16c	8r
16e-	.
16c	8r
16e-JJ	.
*	*clefF4
=296	=296
16GLL	8BBnL
16f	.
16d	8BB
16f	.
16d	16BBL
16fJJ	16GGJJ
=297	=297
16GLL	4.C
16e-	.
16c	.
16e-	.
16c	.
16e-JJ	.
=298	=298
16GLL	4.E-
16e-	.
16c	.
16e-	.
16c	.
16e-JJ	.
=299	=299
16A-LL	4.C
16e-	.
16c	.
16e-	.
16c	.
16e-JJ	.
=300	=300
16A-LL	4.AA-
16e-	.
16c	.
16e-	.
16c	.
16e-JJ	.
=301	=301
16AnLL	4.FF#
16e-	.
16c	.
16e-	.
16c	.
16e-JJ	.
=302	=302
16AnLL	4.EE-
16e-	.
16c	.
16e-	.
16c	.
16e-JJ	.
=303	=303
16cnLL	4.CC
16f#	.
16e-	.
16f#	.
16e-	.
16f#JJ	.
=304	=304
16cnLL	4.AAAn
16f#	.
16e-	.
16f#	.
16e-	.
16f#JJ	.
=305	=305
4c; 4a;	[4FFF#;
8r	16FFF#LL]
.	16AAAJJ
=306	=306
4.r	16DDLL
.	16FF#
.	16AA
.	16D
.	16F#
.	16AJJ
=307	=307
16dLL	4.r
16f#	.
16a	.
16dd	.
16ff#	.
16aaJJ	.
=308	=308
8ccc	4.r
8r	.
8r	.
*	*clefG2
=309	=309
8cc'L 8ff#'	8d'L 8a'
8cc' 8ff#'	8d' 8a'
(8ccJ 8ff#	(8dJ 8a
=310	=310
8b) 8gg	8e) 8g
8r	8r
8r	8r
=311	=311
8a'L 8dd#'	8B'L 8f#'
8a' 8dd#'	8B' 8f#'
(8aJ 8dd#	(8BJ 8f#
=312	=312
8g) 8ee	8c) 8e
8r	8r
*	*clefF4
(8f 8b	(8G# 8d
=313	=313
8e) 8cc	8A) 8c
8r	8r
*	*clefF4
(8gn 8cc#	(8A# 8e
=314	=314
8f#) 8dd	8B) 8d
8r	8r
*	*clefF4
(8gn 8dd#	(8BB 8B
=315	=315
8g) 8ee	8C) 8c
8r	8r
8en 8g 8a	(8CC# 8C#
=316	=316
4.d 4.g [4.b	4.DD) 4.D
=317	=317
(32bLLL]	4.r
32dd	.
32cc	.
32bJJ	.
32ccLL	.
32dd	.
32ee	.
32ff#JJ	.
32ggLL	.
32aa	.
32bb	.
32cccJJJ	.
=318	=318
8ddd)	4.r
8r	.
16.r	.
32g	.
=319	=319
[4cc	4.r
16.ccLK]	.
96bLLL	.
96a	.
96gJJJJ	.
=320	=320
32gq	.
32aq	.
32bq	.
[4.a	4.r
=321	=321
4.a_	4.r
=322	=322
4a]	[4.D [4.F# [4.c
8g	.
=323	=323
(8bL	4.D] 4.F#] 4.c]
8.a)	.
16g'Jk	.
=324||	=324||
*met(c|)	*met(c|)
*M2/2	*M2/2
4g	4GG 4G
4g	4G
4f#	4FF# 4F#
8f#L	4F#
8gJ	.
=325	=325
4e	4EE 4E
8eL	4E
8gJ	.
4.d	4DD 4D
.	4r
8d	.
=326	=326
*^	*
4cc	4g	4E
4cc	4a	4F#
(8ccL	4d	4G
8b	.	.
8a	4e	4C# 4A
8gJ)	.	.
=327	=327	=327
(4g	4d	(4D 4B
8bL	4f#	4D#) 4c
8aJ	.	.
4g)	4r	4E 4B
4r	8r	4r
.	8gg	.
*	*	*clefG2
=328	=328	=328
4ccc	4gg	4e
4ccc	4aa	4f#
(8cccL	4dd	4g
8bb)	.	.
8aa'	4r	4r
8gg'J	.	.
*v	*v	*
=329	=329
*	*^
(4ddd	(4b	2d
4cc) 4ff#	4a)	.
*	*v	*v
4b 4gg	(8GL
.	8g
4r	8G
.	8gJ)
=330	=330
4ee 4ccc	(8GL
.	8g
(4ee 4ccc	8G
.	8gJ
4dd) 4bb	8GL
.	8g
(4dd 4bb	8G
.	8gJ)
=331	=331
4cc) 4aa	(8GL
.	8g
4cc 4aa	8G
.	8gJ
16bLL	8GL
16dd	.
16gg	8g
16bbJJ	.
8ddd	8G
8r	8gJ)
=332	=332
4ee 4ccc	(8GL
.	8g
(4ee 4ccc	8G
.	8gJ
4dd) 4bb	8GL
.	8g
4dd 4bb	8G
.	8gJ)
=333	=333
(16bbq	.
*^	*
(8aaL)	2cc	(8GL
8gg	.	8g
8aa	.	8G
8bbJ)	.	8gJ)
*	*	*clefF4
4gg	4b	16GGLL
.	.	16G
.	.	16F#
.	.	16GJJ
4r	4r	16GGLL
.	.	16G
.	.	16F#
.	.	16GJJ
*v	*v	*
=334	=334
4e 4cc	16GGLL
.	16G
.	16F#
.	16GJJ
(4e 4cc	16GGLL
.	16G
.	16F#
.	16GJJ
4d) 4b	16GGLL
.	16G
.	16F#
.	16GJJ
(4d 4b	16GGLL
.	16G
.	16F#
.	16GJJ
=335	=335
4c) 4a	16GGLL
.	16G
.	16F#
.	16GJJ
4c 4a	16GGLL
.	16G
.	16F#
.	16GJJ
16BLL	16GGLL
16d	16G
16g	16F#
16bJJ	16GJJ
8dd	16GGLL
.	16G
8r	16F#
.	16GJJ
=336	=336
4e 4cc	16GGLL
.	16G
.	16F#
.	16GJJ
(4e 4cc	16GGLL
.	16G
.	16F#
.	16GJJ
4d) 4b	16GGLL
.	16G
.	16F#
.	16GJJ
4d 4b	16GGLL
.	16G
.	16F#
.	16GJJ
=337	=337
(16bq	.
*^	*
(8aL)	2c	16GGLL
.	.	16G
8g	.	16F#
.	.	16GJJ
8a	.	16GGLL
.	.	16G
8bJ)	.	16F#
.	.	16GJJ
8gL	2r	4GG
8gJ	.	.
16gLL	.	4r
16a	.	.
16b	.	.
16ccJJ	.	.
*v	*v	*
*	*clefG2
=338	=338
8ddL	4d 4a 4cc
8ddJ	.
8ddL	4r
16eeL	.
16ff#JJ	.
8ggL	4g 4b
8ggJ	.
(16aaq	.
8ggL)	4r
16ff#L	.
16eeJJ	.
=339	=339
16ddLL	4d 4a 4cc
16ee	.
16cc	.
16ddJJ	.
16bLL	4r
16cc	.
16a	.
16bJJ	.
*	*clefF4
8gL	4G 4B
8gJ	.
(16aq	.
8gL)	4r
16f#L	.
16eJJ	.
=340	=340
16dLL	4D 4A 4c
16e	.
16c	.
16dJJ	.
*clefF4	*
16BLL	4r
16c	.
16A	.
16BJJ	.
8GL	4GG 4BB
8GJ	.
(16Aq	.
8GL)	4r
16F#L	.
16EJJ	.
=341	=341
16DLL	4DD 4AA 4C
16E	.
16C	.
16DJJ	.
16BBLL	4r
16C	.
16AA	.
16BBJJ	.
*	*clefG2
8GGL	4B 4g
8GGJ	.
(16AAq	.
8GGL)	4r
16FF#L	.
16EEJJ	.
=342	=342
16DDLL	4d 4a
16EE	.
16CC	.
16DDJJ	.
16BBBLL	4r
16CC	.
16AAA	.
16BBBJJ	.
8GGGL	4g 4b
16AAAL	.
16BBBJJ	.
16CCLL	4r
16DD	.
16EE	.
16FF#JJ	.
*	*clefF4
=343	=343
8GGL	8GGGL
16AAL	16AAAL
16BBJJ	16BBBJJ
16CLL	16CCLL
16D	16DD
16E	16EE
16F#JJ	16FF#JJ
8GL	8GGL
16AL	16AAL
16BJJ	16BBJJ
*clefG2	*
16cLL	16CLL
16d	16D
16e	16E
16f#JJ	16F#JJ
=344	=344
4g	4G
4b 4dd 4gg	4GGG 4GG
2r;	2r;
==	==
*-	*-
